assets/icons/qvision/wifi_tethering.svg

<svg xmlns="http://www.w3.org/2000/svg" height="24" viewBox="0 0 24 24" width="24"><path d="M0 0h24v24H0z" fill="none"/><path d="M12 11c-1.1 0-2 .9-2 2s.9 2 2 2 2-.9 2-2-.9-2-2-2zm6 2c0-3.31-2.69-6-6-6s-6 2.69-6 6c0 2.22 1.21 4.15 3 5.19l1-1.74c-1.19-.7-2-1.97-2-3.45 0-2.21 1.79-4 4-4s4 1.79 4 4c0 1.48-.81 2.75-2 3.45l1 1.74c1.79-1.04 3-2.97 3-5.19zM12 3C6.48 3 2 7.48 2 13c0 3.7 2.01 6.92 4.99 8.65l1-1.73C5.61 18.53 4 15.96 4 13c0-4.42 3.58-8 8-8s8 3.58 8 8c0 2.96-1.61 5.53-4 6.92l1 1.73c2.99-1.73 5-4.95 5-8.65 0-5.52-4.48-10-10-10z"/></svg>

<svg width="24" height="24" viewBox="0 0 24 24" fill="none" xmlns="http://www.w3.org/2000/svg">
<g clip-path="url(#clip0_147_2506)">
<path d="M12 11C10.9 11 10 11.9 10 13C10 14.1 10.9 15 12 15C13.1 15 14 14.1 14 13C14 11.9 13.1 11 12 11ZM18 13C18 9.69 15.31 7 12 7C8.69 7 6 9.69 6 13C6 15.22 7.21 17.15 9 18.19L10 16.45C8.81 15.75 8 14.48 8 13C8 10.79 9.79 9 12 9C14.21 9 16 10.79 16 13C16 14.48 15.19 15.75 14 16.45L15 18.19C16.79 17.15 18 15.22 18 13ZM12 3C6.48 3 2 7.48 2 13C2 16.7 4.01 19.92 6.99 21.65L7.99 19.92C5.61 18.53 4 15.96 4 13C4 8.58 7.58 5 12 5C16.42 5 20 8.58 20 13C20 15.96 18.39 18.53 16 19.92L17 21.65C19.99 19.92 22 16.7 22 13C22 7.48 17.52 3 12 3Z" fill="#323232"/>
</g>
<defs>
<clipPath id="clip0_147_2506">
<rect width="24" height="24" fill="white"/>
</clipPath>
</defs>
</svg>
